alternatives/kde-colorscheme/16/apps/preferences-desktop-peripherals.svg

<?xml version="1.0" encoding="UTF-8" standalone="no"?>
<!-- Created with Inkscape (http://www.inkscape.org/) -->

<svg
   width="16"
   height="16"
   viewBox="0 0 16 16"
   version="1.1"
   id="svg5"
   inkscape:version="1.2.1 (9c6d41e410, 2022-07-14)"
   sodipodi:docname="preferences-desktop-peripherals.svg"
   xmlns:inkscape="http://www.inkscape.org/namespaces/inkscape"
   xmlns:sodipodi="http://sodipodi.sourceforge.net/DTD/sodipodi-0.dtd"
   xmlns:xlink="http://www.w3.org/1999/xlink"
   xmlns="http://www.w3.org/2000/svg"
   xmlns:svg="http://www.w3.org/2000/svg">
  <sodipodi:namedview
     id="namedview7"
     pagecolor="#ffffff"
     bordercolor="#000000"
     borderopacity="0.25"
     inkscape:showpageshadow="2"
     inkscape:pageopacity="0.0"
     inkscape:pagecheckerboard="0"
     inkscape:deskcolor="#d1d1d1"
     inkscape:document-units="px"
     showgrid="false"
     inkscape:zoom="51.125"
     inkscape:cx="8"
     inkscape:cy="8"
     inkscape:window-width="1920"
     inkscape:window-height="1004"
     inkscape:window-x="0"
     inkscape:window-y="0"
     inkscape:window-maximized="1"
     inkscape:current-layer="svg5" />
  <defs
     id="defs2">
    <linearGradient
       inkscape:collect="always"
       id="linearGradient1144">
      <stop
         style="stop-color:#adb2b9;stop-opacity:1;"
         offset="0"
         id="stop1140" />
      <stop
         style="stop-color:#e0e2e4;stop-opacity:1;"
         offset="1"
         id="stop1142" />
    </linearGradient>
    <linearGradient
       inkscape:collect="always"
       xlink:href="#linearGradient1144"
       id="linearGradient1091"
       x1="0"
       y1="0"
       x2="16"
       y2="16"
       gradientUnits="userSpaceOnUse" />
  </defs>
  <path
     id="path530"
     style="fill:url(#linearGradient1091);fill-opacity:1;stroke-width:0.5;stroke-linecap:round;stroke-linejoin:round"
     d="M 6 0 C 1.4494094 0 0 1.469913 0 6 L 0 10 C 0 14.530087 1.4494094 16 6 16 L 10 16 C 14.550591 16 16 14.530086 16 10 L 16 6 C 16 1.469913 14.550591 0 10 0 L 6 0 z " />
  <path
     id="rect925"
     style="fill:#666666;fill-opacity:1;stroke-linecap:round;stroke-linejoin:round"
     d="M 7,3 C 5.3380017,3 4,4.3380017 4,6 v 4 c 0,1.661998 1.3380017,3 3,3 h 1 c 1.661998,0 3,-1.338002 3,-3 V 6 C 11,4.3380017 9.661998,3 8,3 Z M 7.5,4 C 7.7769997,4 8,4.2230003 8,4.5 v 2 C 8,6.7769997 7.7769997,7 7.5,7 7.2230003,7 7,6.7769997 7,6.5 v -2 C 7,4.2230003 7.2230003,4 7.5,4 Z" />
  <rect
     style="fill:#f2f2f2;stroke-width:3;stroke-linecap:round;stroke-linejoin:round"
     id="rect506"
     width="1"
     height="3"
     x="7"
     y="4" />
</svg>

<?xml version="1.0" encoding="UTF-8" standalone="no"?>
<!-- Created with Inkscape (http://www.inkscape.org/) -->

<svg
   width="16"
   height="16"
   viewBox="0 0 16 16"
   version="1.1"
   id="svg5"
   inkscape:version="1.2.2 (1:1.2.2+202305151914+b0a8486541)"
   sodipodi:docname="preferences-desktop-peripherals.svg"
   xmlns:inkscape="http://www.inkscape.org/namespaces/inkscape"
   xmlns:sodipodi="http://sodipodi.sourceforge.net/DTD/sodipodi-0.dtd"
   xmlns="http://www.w3.org/2000/svg"
   xmlns:svg="http://www.w3.org/2000/svg">
  <sodipodi:namedview
     id="namedview7"
     pagecolor="#ffffff"
     bordercolor="#000000"
     borderopacity="0.25"
     inkscape:showpageshadow="2"
     inkscape:pageopacity="0.0"
     inkscape:pagecheckerboard="0"
     inkscape:deskcolor="#d1d1d1"
     inkscape:document-units="px"
     showgrid="false"
     inkscape:zoom="51.125"
     inkscape:cx="8.0293399"
     inkscape:cy="8"
     inkscape:window-width="1920"
     inkscape:window-height="1008"
     inkscape:window-x="0"
     inkscape:window-y="0"
     inkscape:window-maximized="1"
     inkscape:current-layer="svg5" />
  <defs
     id="defs2">
    <style
       id="current-color-scheme"
       type="text/css">
         .ColorScheme-Text { color:#232629; }
         .ColorScheme-Highlight { color:#3daee9; }
     </style>
  </defs>
  <path
     id="path530"
     style="fill:currentColor;fill-opacity:1;stroke-width:0.5;stroke-linecap:round;stroke-linejoin:round"
     d="M 6,0 C 1.4494094,0 0,1.469913 0,6 v 4 c 0,4.530087 1.4494094,6 6,6 h 4 c 4.550591,0 6,-1.469914 6,-6 V 6 C 16,1.469913 14.550591,0 10,0 Z"
     class="ColorScheme-Highlight" />
  <path
     id="rect925"
     style="fill:currentColor;fill-opacity:1;stroke-linecap:round;stroke-linejoin:round;opacity:0.6"
     d="M 7 3 C 5.3380034 3 4 4.3380034 4 6 L 4 10 C 4 11.661996 5.3380034 13 7 13 L 8 13 C 9.6619963 13 11 11.661996 11 10 L 11 6 C 11 4.3380034 9.6619963 3 8 3 L 7 3 z M 7 4 L 7.5 4 L 8 4 L 8 4.5 L 8 6.5 L 8 7 L 7.5 7 L 7 7 L 7 6.5 L 7 4.5 L 7 4 z "
     class="ColorScheme-Text" />
</svg>
